X: 19507
T: Jacky Tar
R: hornpipe
M: 4/4
K: Edorian
Bd|:~e3d e2fg|edBA B2AB|dedc d2gf|edBG A2BA|
~G3A B2GB|edBd eggB|EFGA BdBA|1 G2E2 E2Bd:|2 G2E2 E2GA||
|:BGEG BGEG|BGAF ~E3B|AFDF AFDF|AF(3GFE DEFD|
~G3A B2FB|edBd eggB|EFGA BdBA|1 G2E2 E2GA:|2 G2E2 E4||

